svg/whatsapp.svg

<svg width="30" height="31" viewBox="0 0 30 31" fill="none" xmlns="http://www.w3.org/2000/svg">
<path fill-rule="evenodd" clip-rule="evenodd" d="M25.6119 5.34412C22.8052 2.53418 19.0726 0.986023 15.0961 0.984375C6.90216 0.984375 0.233459 7.65289 0.230164 15.8491C0.229065 18.4691 0.913513 21.0267 2.21448 23.2811L0.105469 30.9844L7.98614 28.9171C10.1576 30.1016 12.6022 30.7258 15.0901 30.7266H15.0963C23.2894 30.7266 29.9588 24.0575 29.9619 15.861C29.9636 11.8887 28.4187 8.15387 25.6119 5.34412ZM15.0961 28.216H15.091C12.874 28.2151 10.6996 27.6193 8.80225 26.4937L8.35126 26.2258L3.67474 27.4526L4.92297 22.8931L4.62909 22.4257C3.39221 20.4584 2.73907 18.1846 2.74017 15.85C2.74274 9.03754 8.2857 3.49512 15.1011 3.49512C18.4014 3.49622 21.5037 4.78308 23.8365 7.11859C26.1692 9.4541 27.4532 12.5585 27.4521 15.86C27.4492 22.673 21.9066 28.216 15.0961 28.216ZM21.8736 18.962C21.5023 18.776 19.676 17.8777 19.3354 17.7535C18.9952 17.6296 18.7472 17.5679 18.4999 17.9396C18.2521 18.3113 17.5404 19.1481 17.3236 19.3958C17.1068 19.6437 16.8904 19.6749 16.5189 19.4888C16.1473 19.303 14.9506 18.9106 13.5317 17.6451C12.4275 16.6602 11.6821 15.4438 11.4653 15.0721C11.2489 14.7001 11.4635 14.5184 11.6283 14.3141C12.0304 13.8148 12.433 13.2913 12.5568 13.0435C12.6808 12.7956 12.6187 12.5786 12.5257 12.3928C12.433 12.2069 11.6902 10.3786 11.3807 9.63464C11.079 8.91064 10.773 9.00842 10.5449 8.99707C10.3284 8.98627 10.0807 8.98407 9.83294 8.98407C9.58539 8.98407 9.18292 9.0769 8.84235 9.44897C8.50195 9.82086 7.54248 10.7194 7.54248 12.5477C7.54248 14.376 8.87347 16.1422 9.05914 16.3901C9.24481 16.6381 11.6785 20.3899 15.4045 21.9987C16.2907 22.3817 16.9825 22.61 17.5221 22.7812C18.412 23.064 19.2215 23.024 19.8616 22.9285C20.5754 22.8217 22.0591 22.0298 22.3689 21.1622C22.6783 20.2945 22.6783 19.5509 22.5853 19.3958C22.4927 19.2409 22.2449 19.1481 21.8736 18.962Z" fill="white"/>
</svg>

<svg width="30" height="31" viewBox="0 0 30 31" fill="none" xmlns="http://www.w3.org/2000/svg"><path fill-rule="evenodd" clip-rule="evenodd" d="M25.612 5.344A14.77 14.77 0 0 0 15.096.984C6.902.984.233 7.653.23 15.85a14.839 14.839 0 0 0 1.984 7.432L.105 30.984l7.881-2.067a14.85 14.85 0 0 0 7.104 1.81h.006c8.193 0 14.863-6.67 14.866-14.866a14.774 14.774 0 0 0-4.35-10.517zM15.096 28.216h-.005a12.34 12.34 0 0 1-6.289-1.722l-.45-.268-4.677 1.227 1.248-4.56-.294-.467A12.325 12.325 0 0 1 2.74 15.85C2.743 9.038 8.286 3.495 15.101 3.495c3.3.001 6.403 1.288 8.736 3.624a12.283 12.283 0 0 1 3.615 8.741c-.003 6.813-5.545 12.356-12.356 12.356zm6.778-9.254c-.372-.186-2.198-1.084-2.539-1.209-.34-.123-.588-.185-.835.187-.248.371-.96 1.208-1.176 1.456-.217.248-.434.279-.805.093-.372-.186-1.568-.578-2.987-1.844-1.104-.985-1.85-2.201-2.067-2.573-.216-.372-.002-.554.163-.758.402-.5.805-1.023.929-1.27.124-.248.062-.465-.031-.651s-.836-2.014-1.145-2.758c-.302-.724-.608-.627-.836-.638-.217-.01-.464-.013-.712-.013-.248 0-.65.093-.99.465-.341.372-1.3 1.27-1.3 3.099 0 1.828 1.33 3.594 1.516 3.842.186.248 2.62 4 6.346 5.609.886.383 1.578.611 2.117.782.89.283 1.7.243 2.34.148.713-.107 2.197-.9 2.507-1.767.31-.867.31-1.611.216-1.766-.092-.155-.34-.248-.711-.434z" fill="#fff"/></svg>
